img/pricing/icon-2.svg

<svg width="72" height="88" viewBox="0 0 72 88" fill="none" xmlns="http://www.w3.org/2000/svg">
<path d="M36 80C55.9 80 72 63.9 72 44C72 24.1 55.9 8 36 8C16.1 8 0 24.1 0 44C0 63.9 16.1 80 36 80Z" fill="url(#paint0_linear_116_435)"/>
<path opacity="0.1" d="M36.0004 8L33.2004 8.1C41.5004 8.7 48.9004 12.2 54.7004 17.5L53.4004 18.8C52.3004 19.9 51.8004 21.6 52.2004 23.1L53.3004 27.7L35.3004 45.8L33.5004 44V48.5C33.4921 48.8174 33.5486 49.1332 33.6663 49.4281C33.784 49.723 33.9604 49.9909 34.185 50.2154C34.4095 50.4399 34.6774 50.6164 34.9723 50.7341C35.2672 50.8518 35.583 50.9083 35.9004 50.9C36.5004 50.9 37.2004 50.7 37.6004 50.2L55.3004 32.5L59.9004 33.6C61.4004 34 63.1004 33.5 64.2004 32.4C65.4004 36 66.1004 39.9 66.1004 44C66.1004 62.9 51.5004 78.4 32.9004 79.9C34.1004 80 35.0004 80 36.0004 80C55.9004 80 72.0004 63.9 72.0004 44C72.0004 24.1 55.9004 8 36.0004 8Z" fill="black"/>
<path d="M36.0008 48.1998C38.3008 48.1998 40.2008 46.2998 40.2008 43.9998C40.2008 41.6998 38.3008 39.7998 36.0008 39.7998C33.7008 39.7998 31.8008 41.6998 31.8008 43.9998C31.8008 46.2998 33.7008 48.1998 36.0008 48.1998Z" fill="url(#paint1_linear_116_435)"/>
<path d="M35.9996 18.6001C21.9996 18.6001 10.5996 30.0001 10.5996 44.0001C10.5996 58.0001 21.9996 69.4001 35.9996 69.4001C49.9996 69.4001 61.3996 58.0001 61.3996 44.0001C61.3996 30.0001 49.9996 18.6001 35.9996 18.6001ZM35.9996 58.8001C34.0549 58.804 32.1286 58.4239 30.3312 57.6816C28.5338 56.9392 26.9007 55.8492 25.5256 54.4741C24.1505 53.099 23.0605 51.4659 22.3181 49.6685C21.5758 47.8711 21.1957 45.9448 21.1996 44.0001C21.1957 42.0554 21.5758 40.1291 22.3181 38.3317C23.0605 36.5343 24.1505 34.9012 25.5256 33.5261C26.9007 32.151 28.5338 31.061 30.3312 30.3186C32.1286 29.5763 34.0549 29.1961 35.9996 29.2001C37.9443 29.1961 39.8706 29.5763 41.668 30.3186C43.4654 31.061 45.0985 32.151 46.4736 33.5261C47.8487 34.9012 48.9387 36.5343 49.6811 38.3317C50.4234 40.1291 50.8036 42.0554 50.7996 44.0001C50.8036 45.9448 50.4234 47.8711 49.6811 49.6685C48.9387 51.4659 47.8487 53.099 46.4736 54.4741C45.0985 55.8492 43.4654 56.9392 41.668 57.6816C39.8706 58.4239 37.9443 58.804 35.9996 58.8001Z" fill="url(#paint2_linear_116_435)"/>
<path d="M35.3 45.8001L33.5 44.0001V47.4001C34.2 47.9001 35 48.2001 36 48.2001C37.1115 48.1922 38.1752 47.7472 38.9612 46.9613C39.7471 46.1753 40.1921 45.1116 40.2 44.0001C40.2 43.1001 39.9 42.3001 39.4 41.6001L35.3 45.8001Z" fill="url(#paint3_linear_116_435)"/>
<path opacity="0.1" d="M52.7 24.7998L53.4 27.6998L47 33.9998C48.1 35.1998 49.1 36.6998 49.7 38.2998L55.5 32.4998L59.1 33.3998C57.6 30.0998 55.4 27.1998 52.7 24.7998Z" fill="black"/>
<path d="M70.5009 17.7002L64.0009 16.0002L62.4009 9.50022C62.3052 9.158 62.1217 8.84673 61.8687 8.59722C61.6157 8.34771 61.3018 8.16862 60.9583 8.07769C60.6148 7.98675 60.2535 7.98713 59.9102 8.07878C59.5668 8.17044 59.2534 8.35018 59.0009 8.60022L52.0009 15.6002C50.9009 16.7002 50.4009 18.4002 50.8009 19.9002L52.6009 27.3002L60.0009 29.1002C61.5009 29.5002 63.2009 29.0002 64.3009 27.9002L71.3009 20.9002C72.5009 19.9002 72.0009 18.0002 70.5009 17.7002Z" fill="url(#paint4_linear_116_435)"/>
<path d="M70.5009 17.7002L64.0009 16.0002L62.4009 9.50022C62.3052 9.158 62.1217 8.84673 61.8687 8.59722C61.6157 8.34771 61.3018 8.16862 60.9583 8.07769C60.6148 7.98675 60.2535 7.98713 59.9102 8.07878C59.5668 8.17044 59.2534 8.35018 59.0009 8.60022L52.0009 15.6002C50.9009 16.7002 50.4009 18.4002 50.8009 19.9002L52.6009 27.3002L60.0009 29.1002C61.5009 29.5002 63.2009 29.0002 64.3009 27.9002L71.3009 20.9002C72.5009 19.9002 72.0009 18.0002 70.5009 17.7002Z" fill="url(#paint5_linear_116_435)"/>
<path d="M70.5005 17.7002L64.0005 16.0002L62.4005 9.50022C62.3048 9.158 62.1213 8.84673 61.8683 8.59722C61.6153 8.34771 61.3015 8.16862 60.9579 8.07769C60.6144 7.98675 60.2531 7.98713 59.9098 8.07878C59.5664 8.17044 59.253 8.35018 59.0005 8.60022L55.1005 12.5002C54.0005 13.6002 53.5005 15.3002 53.9005 16.8002L55.7005 24.2002L63.1005 26.0002C64.6005 26.4002 66.3005 25.9002 67.4005 24.8002L71.3005 20.9002C72.5005 19.9002 72.0005 18.0002 70.5005 17.7002Z" fill="url(#paint6_linear_116_435)"/>
<path d="M70.5005 17.7002L64.0005 16.0002L62.4005 9.50022C62.3048 9.158 62.1213 8.84673 61.8683 8.59722C61.6153 8.34771 61.3015 8.16862 60.9579 8.07769C60.6144 7.98675 60.2531 7.98713 59.9098 8.07878C59.5664 8.17044 59.253 8.35018 59.0005 8.60022L58.1005 9.50022C57.0005 10.6002 56.5005 12.3002 56.9005 13.8002L58.7005 21.2002L66.1005 23.0002C67.6005 23.4002 69.3005 22.9002 70.4005 21.8002L71.3005 20.9002C72.5005 19.9002 72.0005 18.0002 70.5005 17.7002Z" fill="url(#paint7_linear_116_435)"/>
<path d="M36.0008 46.5C35.4008 46.5 34.7008 46.3 34.3008 45.8C33.3008 44.8 33.3008 43.3 34.3008 42.3L62.1008 14.5C63.1008 13.5 64.6008 13.5 65.6008 14.5C66.6008 15.5 66.6008 17 65.6008 18L37.7008 45.7C37.3008 46.2 36.6008 46.5 36.0008 46.5Z" fill="url(#paint8_linear_116_435)"/>
<defs>
<linearGradient id="paint0_linear_116_435" x1="-3.116" y1="44" x2="61.841" y2="44" gradientUnits="userSpaceOnUse">
<stop stop-color="#9714F4"/>
<stop offset="1" stop-color="#A237EE"/>
</linearGradient>
<linearGradient id="paint1_linear_116_435" x1="10.4468" y1="44.0018" x2="60.7238" y2="44.0018" gradientUnits="userSpaceOnUse">
<stop stop-color="#F2FBFF"/>
<stop offset="0.593" stop-color="#FAF7F7"/>
<stop offset="1" stop-color="#F3EAE6"/>
</linearGradient>
<linearGradient id="paint2_linear_116_435" x1="10.4456" y1="44.0021" x2="60.7226" y2="44.0021" gradientUnits="userSpaceOnUse">
<stop stop-color="white"/>
<stop offset="0.416" stop-color="#F5F4F8"/>
<stop offset="1" stop-color="#EFECF3"/>
</linearGradient>
<linearGradient id="paint3_linear_116_435" x1="29.226" y1="44.9001" x2="60.871" y2="44.9001" gradientUnits="userSpaceOnUse">
<stop stop-color="#F3EAE6"/>
<stop offset="1" stop-color="#CDBFBA"/>
</linearGradient>
<linearGradient id="paint4_linear_116_435" x1="48.7529" y1="18.6452" x2="63.8119" y2="18.6452" gradientUnits="userSpaceOnUse">
<stop stop-color="#FFF9DF"/>
<stop offset="0.593" stop-color="#FFE177"/>
<stop offset="1" stop-color="#FEB137"/>
</linearGradient>
<linearGradient id="paint5_linear_116_435" x1="48.7529" y1="18.6452" x2="63.8119" y2="18.6452" gradientUnits="userSpaceOnUse">
<stop stop-color="#FFF9DF"/>
<stop offset="0.0001" stop-color="#9714F4" stop-opacity="0.38"/>
<stop offset="1" stop-color="#9714F4"/>
</linearGradient>
<linearGradient id="paint6_linear_116_435" x1="48.7525" y1="17.1162" x2="63.8115" y2="17.1162" gradientUnits="userSpaceOnUse">
<stop stop-color="#A237EE"/>
<stop offset="0.593" stop-color="#9714F4"/>
<stop offset="1" stop-color="#A237EE"/>
</linearGradient>
<linearGradient id="paint7_linear_116_435" x1="48.7525" y1="15.5872" x2="63.8115" y2="15.5872" gradientUnits="userSpaceOnUse">
<stop stop-color="#FFF9DF"/>
<stop offset="0.593" stop-color="#A237EE"/>
<stop offset="1" stop-color="#9714F4"/>
</linearGradient>
<linearGradient id="paint8_linear_116_435" x1="33.6318" y1="30.1" x2="65.7968" y2="30.1" gradientUnits="userSpaceOnUse">
<stop stop-color="#3BCFFE"/>
<stop offset="1" stop-color="#3C76F2"/>
</linearGradient>
</defs>
</svg>

<svg xmlns="http://www.w3.org/2000/svg" xmlns:xlink="http://www.w3.org/1999/xlink" viewBox="0 0 72 88" xmlns:v="https://vecta.io/nano"><linearGradient id="A" gradientUnits="userSpaceOnUse" x1="-3.116" y1="44" x2="61.841" y2="44"><stop offset="0" stop-color="#ff9aa1"/><stop offset="1" stop-color="#f23c49"/></linearGradient><path d="M36 80c19.9 0 36-16.1 36-36S55.9 8 36 8 0 24.1 0 44s16.1 36 36 36z" fill="url(#A)"/><path d="M36 8l-2.8.1c8.3.6 15.7 4.1 21.5 9.4l-1.3 1.3c-1.1 1.1-1.6 2.8-1.2 4.3l1.1 4.6-18 18.1-1.8-1.8v4.5a2.34 2.34 0 0 0 2.4 2.4c.6 0 1.3-.2 1.7-.7l17.7-17.7 4.6 1.1c1.5.4 3.2-.1 4.3-1.2h0c1.2 3.6 1.9 7.5 1.9 11.6 0 18.9-14.6 34.4-33.2 35.9 1.2.1 2.1.1 3.1.1 19.9 0 36-16.1 36-36S55.9 8 36 8z" opacity=".1" enable-background="new"/><linearGradient id="B" gradientUnits="userSpaceOnUse" x1="10.446" y1="44.002" x2="60.723" y2="44.002"><stop offset="0" stop-color="#f2fbff"/><stop offset=".593" stop-color="#faf7f7"/><stop offset="1" stop-color="#f3eae6"/></linearGradient><path d="M36,48.2c2.3,0,4.2-1.9,4.2-4.2s-1.9-4.2-4.2-4.2c-2.3,0-4.2,1.9-4.2,4.2S33.7,48.2,36,48.2z" fill="url(#B)"/><linearGradient id="C" gradientUnits="userSpaceOnUse" x1="10.446" y1="44.002" x2="60.723" y2="44.002"><stop offset="0" stop-color="#fff"/><stop offset=".416" stop-color="#f5f4f8"/><stop offset="1" stop-color="#efecf3"/></linearGradient><path d="M36 18.6C22 18.6 10.6 30 10.6 44S22 69.4 36 69.4 61.4 58 61.4 44 50 18.6 36 18.6zm0 40.2A14.77 14.77 0 0 1 21.2 44 14.77 14.77 0 0 1 36 29.2 14.77 14.77 0 0 1 50.8 44 14.77 14.77 0 0 1 36 58.8z" fill="url(#C)"/><linearGradient id="D" gradientUnits="userSpaceOnUse" x1="29.226" y1="44.9" x2="60.871" y2="44.9"><stop offset="0" stop-color="#f3eae6"/><stop offset="1" stop-color="#cdbfba"/></linearGradient><path d="M35.3 45.8L33.5 44v3.4c.7.5 1.5.8 2.5.8a4.23 4.23 0 0 0 4.2-4.2c0-.9-.3-1.7-.8-2.4l-4.1 4.2z" fill="url(#D)"/><path d="M52.7 24.8l.7 2.9L47 34c1.1 1.2 2.1 2.7 2.7 4.3l5.8-5.8 3.6.9c-1.5-3.3-3.7-6.2-6.4-8.6z" opacity=".1" enable-background="new"/><linearGradient id="E" gradientUnits="userSpaceOnUse" x1="48.752" y1="18.645" x2="63.811" y2="18.645"><stop offset="0" stop-color="#fff9df"/><stop offset=".593" stop-color="#ffe177"/><stop offset="1" stop-color="#feb137"/></linearGradient><use xlink:href="#J" fill="url(#E)"/><use xlink:href="#J" fill="url(#E)"/><linearGradient id="F" gradientUnits="userSpaceOnUse" x1="48.752" y1="17.116" x2="63.811" y2="17.116"><stop offset="0" stop-color="#fff9df"/><stop offset=".593" stop-color="#ffe177"/><stop offset="1" stop-color="#feb137"/></linearGradient><path d="M70.5 17.7L64 16l-1.6-6.5a2.04 2.04 0 0 0-3.4-.9l-3.9 3.9c-1.1 1.1-1.6 2.8-1.2 4.3l1.8 7.4 7.4 1.8c1.5.4 3.2-.1 4.3-1.2l3.9-3.9c1.2-1 .7-2.9-.8-3.2z" fill="url(#F)"/><linearGradient id="G" gradientUnits="userSpaceOnUse" x1="48.752" y1="15.587" x2="63.811" y2="15.587"><stop offset="0" stop-color="#fff9df"/><stop offset=".593" stop-color="#ffe177"/><stop offset="1" stop-color="#feb137"/></linearGradient><path d="M70.5 17.7L64 16l-1.6-6.5a2.04 2.04 0 0 0-3.4-.9l-.9.9c-1.1 1.1-1.6 2.8-1.2 4.3l1.8 7.4 7.4 1.8c1.5.4 3.2-.1 4.3-1.2l.9-.9c1.2-1 .7-2.9-.8-3.2z" fill="url(#G)"/><linearGradient id="H" gradientUnits="userSpaceOnUse" x1="33.631" y1="30.1" x2="65.796" y2="30.1"><stop offset="0" stop-color="#3bcffe"/><stop offset="1" stop-color="#3c76f2"/></linearGradient><path d="M36 46.5c-.6 0-1.3-.2-1.7-.7-1-1-1-2.5 0-3.5l27.8-27.8c1-1 2.5-1 3.5 0s1 2.5 0 3.5L37.7 45.7c-.4.5-1.1.8-1.7.8z" fill="url(#H)"/><defs ><path id="J" d="M70.5 17.7L64 16l-1.6-6.5a2.04 2.04 0 0 0-3.4-.9l-7 7c-1.1 1.1-1.6 2.8-1.2 4.3l1.8 7.4 7.4 1.8c1.5.4 3.2-.1 4.3-1.2l7-7c1.2-1 .7-2.9-.8-3.2z"/></defs></svg>
